static/logos/mercury-wordmark-color.svg

<svg width="100" height="19" viewBox="0 0 100 19" fill="none" xmlns="http://www.w3.org/2000/svg">
<g clip-path="url(#clip0_1_2039)">
<path d="M12.0133 15.3744C12.1797 14.3927 11.8303 13.3777 11.0815 12.7121C10.5491 12.213 9.83361 11.9301 9.1015 11.9301C8.66889 11.9301 8.25291 11.8303 7.87022 11.6306C7.37105 11.3644 6.97171 10.9484 6.70549 10.4493C6.85524 10.0666 6.9218 9.65058 6.9218 9.20133C6.9218 10.416 7.88685 11.3977 9.08486 11.3977H9.13478C10.3161 11.381 11.2646 10.3993 11.2646 9.20133C11.2646 8.76872 11.3478 8.35275 11.4809 7.95341C11.7138 7.33777 12.1131 6.78869 12.6456 6.38935C13.2945 5.89018 14.0932 5.65724 14.8918 5.69052C14.3261 4.72546 13.5275 3.91015 12.5624 3.32779C12.5624 3.3777 12.5624 3.44426 12.5624 3.49418C12.5624 4.25957 12.3128 4.99168 11.8636 5.60732C11.7304 5.49085 11.5807 5.39101 11.4309 5.30782C11.8303 4.79201 12.03 4.15973 12.03 3.51082C12.03 3.12812 11.9634 2.74542 11.8136 2.37937C11.381 1.31447 10.3661 0.56572 9.16805 0.532443H9.08486H9.00166C8.26955 0.532443 7.55408 0.63228 6.85524 0.831947C3.91015 1.63062 1.59734 3.97671 0.815308 6.95507C0.31614 7.57072 0.0166389 8.31947 0 9.11814C0.0499168 4.10982 4.04326 0.0499168 9.00166 0H9.1015C9.15141 0 9.18469 0 9.23461 0C14.1597 0.0831947 18.1364 4.10982 18.1864 9.11814C18.1864 9.15141 18.1864 9.18469 18.1864 9.21797C18.1864 9.25125 18.1864 9.28453 18.1864 9.3178C18.1697 10.1165 17.8869 10.8652 17.371 11.4809C16.9052 12.0466 16.2562 12.4626 15.5408 12.629C15.2745 12.6955 14.9917 12.7288 14.7255 12.7288C13.9767 12.7288 13.2446 12.4792 12.6456 12.03C12.4293 12.3295 12.1631 12.579 11.8802 12.812C12.3627 13.4609 12.6123 14.2762 12.5624 15.0915C13.5275 14.5092 14.3261 13.6938 14.8918 12.7288C15.1082 12.7121 15.3245 12.6789 15.5408 12.629C14.8586 13.9601 13.777 15.0416 12.4626 15.7404C11.4309 16.2895 10.2662 16.5724 9.1015 16.5724C8.58569 16.5724 8.10316 16.3228 7.80366 15.9235C7.58735 15.624 7.47088 15.2745 7.47088 14.9085C7.47088 14.4093 7.70383 13.9434 8.05324 13.6439C8.38602 13.7271 8.75208 13.777 9.11814 13.777C8.5025 13.777 7.98669 14.2928 7.98669 14.9251C7.98669 15.5574 8.48586 16.0732 9.11814 16.0732H9.13478C9.75042 16.0732 10.2662 15.5574 10.2662 14.9251C10.2662 14.2928 9.76705 13.777 9.13478 13.777C8.30283 13.777 7.50416 13.5441 6.78869 13.1115C6.63893 13.0116 6.48918 12.9118 6.35607 12.812C6.05657 12.579 5.80699 12.3128 5.57404 12.03C5.70715 11.9301 5.84027 11.8136 5.97338 11.6805C6.28952 12.0965 6.68885 12.4626 7.15474 12.7288C7.75374 13.0782 8.43594 13.2612 9.13478 13.2612C9.53411 13.2612 9.9168 13.411 10.1997 13.6606C10.5491 13.9601 10.782 14.426 10.782 14.9251C10.782 15.2912 10.6656 15.6406 10.4493 15.9401C10.9983 15.8236 11.5308 15.6572 12.03 15.4077L12.0133 15.3744ZM15.7238 7.88686C15.624 7.32113 15.4409 6.78869 15.1913 6.27288C14.3927 6.13977 13.5774 6.35607 12.9451 6.8386C12.213 7.40433 11.7804 8.28619 11.7804 9.21797C11.7804 9.66722 11.6805 10.0832 11.4809 10.4659C11.2313 10.9651 10.8153 11.381 10.3328 11.6473C10.782 11.8136 11.1814 12.0799 11.5308 12.4126C11.9468 12.0965 12.2962 11.6805 12.5458 11.2313C12.8952 10.6156 13.0782 9.93344 13.0782 9.21797C13.0782 8.802 13.228 8.43594 13.4775 8.13644C13.7937 7.77038 14.2429 7.55408 14.7255 7.55408C15.0915 7.55408 15.4409 7.67055 15.7238 7.88686ZM15.8403 9.16805C15.8236 8.56905 15.3245 8.08652 14.7088 8.06988C14.0765 8.06988 13.5774 8.58569 13.5774 9.20133C13.5774 9.21797 13.5774 9.23461 13.5774 9.23461C13.594 9.85025 14.0932 10.3328 14.7088 10.3328C15.3411 10.3328 15.8403 9.81697 15.8403 9.20133C15.8403 9.20133 15.8403 9.18469 15.8403 9.16805ZM13.4775 10.2995C13.3611 10.7488 13.1947 11.198 12.9451 11.5973C13.5774 12.0965 14.3927 12.2962 15.1913 12.1631C15.4077 12.1298 15.624 12.0632 15.8403 11.98C16.9218 11.5308 17.6373 10.4825 17.6705 9.30116V9.15141C17.6705 8.4193 17.5707 7.68719 17.371 6.97171C16.589 4.00998 14.2762 1.66389 11.3478 0.848582C11.9135 1.33111 12.2962 1.98003 12.4792 2.69551V2.71215C14.01 3.52745 15.1913 4.85857 15.8403 6.47255C16.1897 7.32113 16.3727 8.25291 16.3727 9.23461C16.3727 9.76705 16.1231 10.2496 15.7238 10.5491C15.4409 10.7654 15.0915 10.8985 14.7255 10.8985C14.2263 10.8819 13.777 10.6489 13.4775 10.2995ZM8.96839 18.4193C4.04326 18.3361 0.0665557 14.2928 0.0166389 9.30116V9.20133V9.1015C0.0332779 8.30283 0.31614 7.55408 0.831947 6.93844C1.29784 6.37271 1.94676 5.97338 2.66223 5.79035C2.92845 5.72379 3.21131 5.69052 3.47754 5.69052C4.22629 5.69052 4.9584 5.9401 5.5574 6.38935C5.77371 6.08985 6.03993 5.84027 6.3228 5.60732C5.84027 4.9584 5.59068 4.14309 5.62396 3.32779C4.6589 3.91015 3.86023 4.72546 3.29451 5.69052C3.0782 5.70715 2.8619 5.74043 2.64559 5.79035C3.32779 4.45923 4.40932 3.3777 5.72379 2.67887C6.75541 2.12978 7.92013 1.84692 9.08486 1.84692C9.60067 1.84692 10.0832 2.09651 10.3827 2.49584C10.599 2.7787 10.7155 3.12812 10.7155 3.51082C10.7155 4.02662 10.4825 4.47587 10.1331 4.77537C9.78369 4.69218 9.43428 4.64226 9.06822 4.64226C9.68386 4.64226 10.1997 4.12646 10.1997 3.49418C10.1997 2.8619 9.7005 2.34609 9.06822 2.34609H9.05158C8.43594 2.34609 7.92013 2.8619 7.92013 3.49418C7.92013 4.12646 8.4193 4.64226 9.05158 4.64226C9.88353 4.64226 10.6822 4.87521 11.3977 5.30782C11.5474 5.40765 11.6972 5.50749 11.8303 5.60732C12.1131 5.84027 12.3794 6.10649 12.6123 6.38935C12.4792 6.48918 12.3461 6.60566 12.213 6.73877C11.8968 6.3228 11.4975 5.95674 11.0316 5.69052C10.4326 5.3411 9.75042 5.15807 9.05158 5.15807C8.66889 5.15807 8.28619 5.00832 7.98669 4.75874C7.62063 4.4426 7.40433 3.97671 7.40433 3.49418C7.40433 3.11148 7.53744 2.76206 7.7371 2.4792C7.18802 2.59567 6.63894 2.7787 6.13977 3.01165C5.97338 3.99334 6.3228 5.00832 7.07155 5.67388C7.60399 6.17304 8.31947 6.45591 9.05158 6.45591C9.48419 6.45591 9.90017 6.55574 10.2829 6.75541C10.782 7.02163 11.1814 7.4376 11.4476 7.93677C11.2978 8.33611 11.2146 8.75208 11.2313 9.18469C11.2313 7.97005 10.2662 6.98835 9.06822 6.98835H9.05158C7.87022 7.00499 6.9218 7.98669 6.9218 9.18469C6.9218 9.6173 6.8386 10.0333 6.70549 10.4326C6.47255 11.0483 6.07321 11.5973 5.54077 11.9967C4.89185 12.4958 4.09318 12.7288 3.29451 12.6955C3.86023 13.6606 4.6589 14.4759 5.62396 15.0582C5.59068 14.2429 5.82363 13.4443 6.30616 12.7953C6.43927 12.9118 6.58902 13.0116 6.73877 13.0948C6.33943 13.6106 6.13977 14.2429 6.13977 14.8918C6.13977 15.2745 6.20632 15.6572 6.35607 16.0233C6.78869 17.0882 7.80366 17.8369 9.00166 17.8702H9.15141C9.88353 17.8702 10.599 17.7704 11.2978 17.5707C14.2429 16.772 16.5557 14.426 17.3378 11.4476C17.8369 10.8319 18.1364 10.0832 18.1531 9.28453C18.1032 14.2928 14.1098 18.3527 9.15141 18.4027H9.05158H8.95175C9.00166 18.4193 8.96839 18.4193 8.96839 18.4193ZM6.85524 17.5874C6.28952 17.1048 5.90682 16.4559 5.72379 15.7404C5.72379 15.7404 5.72379 15.7404 5.72379 15.7238C4.19301 14.9085 3.01165 13.5774 2.36273 11.9634C2.01331 11.0815 1.83028 10.1497 1.83028 9.20133C1.83028 8.66888 2.07987 8.18636 2.4792 7.88686C2.76206 7.67055 3.09484 7.53744 3.47754 7.53744C3.97671 7.53744 4.42596 7.77038 4.72546 8.1198C4.84193 7.65391 5.00832 7.2213 5.2579 6.82196C4.62562 6.3228 3.81032 6.12313 3.01165 6.25624C2.7787 6.28952 2.57903 6.35607 2.36273 6.43927C1.2812 6.88852 0.565724 7.93677 0.532446 9.11814C0.532446 9.15141 0.532446 9.16805 0.532446 9.20133V9.28453C0.532446 10.0166 0.63228 10.7488 0.831947 11.4642C1.63062 14.4426 3.92679 16.7887 6.85524 17.5874ZM3.01165 12.1631C3.81032 12.2962 4.62562 12.0799 5.2579 11.5973C5.99002 11.0316 6.42263 10.1498 6.42263 9.21797C6.42263 8.76872 6.52246 8.35275 6.72213 7.97005C6.97171 7.47088 7.38769 7.05491 7.87022 6.78869H7.85358C7.40433 6.6223 7.00499 6.35607 6.65557 6.02329C6.2396 6.33943 5.89018 6.75541 5.6406 7.20466C5.29118 7.8203 5.10815 8.5025 5.10815 9.21797C5.10815 9.63394 4.9584 10 4.70882 10.2995C4.39268 10.6656 3.94343 10.8819 3.4609 10.8819C3.0782 10.8819 2.74542 10.7488 2.46256 10.5324C2.59567 11.0982 2.7787 11.6473 3.01165 12.1631ZM2.36273 9.26789C2.39601 9.86689 2.87854 10.3661 3.49418 10.3661C4.12646 10.3661 4.62562 9.85025 4.62562 9.23461C4.62562 9.21797 4.62562 9.20133 4.62562 9.20133C4.60898 8.58569 4.10982 8.10316 3.49418 8.10316C2.8619 8.10316 2.36273 8.61897 2.36273 9.25125C2.36273 9.23461 2.36273 9.25125 2.36273 9.26789ZM25.4908 4.39268H27.9867L30.3161 10.7488H30.3494L32.6456 4.39268H35.1414V13.3444H33.5607V6.15641H33.5441L30.8319 13.3444H29.7171L27.0383 6.15641H27.0216V13.3444H25.5075L25.4908 4.39268ZM39.5008 4.39268H45.4243V5.79035H41.0982V8.06988H45.208V9.401H41.0815V11.9301H45.6406V13.3444H39.4842L39.5008 4.39268ZM52.4792 8.25291C52.7121 8.25291 52.9285 8.23627 53.1614 8.20299C53.3777 8.16972 53.5774 8.10316 53.777 8.01997C53.9601 7.92013 54.1098 7.78702 54.2263 7.62063C54.3428 7.45424 54.4093 7.2213 54.4093 6.95507C54.4093 6.70549 54.3594 6.50582 54.2429 6.35607C54.1265 6.20632 53.9933 6.07321 53.827 5.99002C53.6439 5.89018 53.4609 5.82363 53.2446 5.80699C53.0449 5.77371 52.8286 5.75707 52.6123 5.75707H51.1647V8.26955C51.1814 8.25291 52.4792 8.25291 52.4792 8.25291ZM49.584 4.39268H52.6955C53.1115 4.39268 53.5275 4.4426 53.9268 4.52579C54.3095 4.60899 54.6589 4.75874 54.975 4.9584C55.2745 5.15807 55.5408 5.44093 55.7072 5.75707C55.8902 6.08985 55.99 6.48918 55.99 6.95507C55.99 7.60399 55.807 8.13644 55.4409 8.53577C55.0749 8.95175 54.5757 9.21797 53.9434 9.36772L56.3228 13.3278H54.4093L52.3461 9.53411H51.1814V13.3278H49.584V4.39268ZM66.3727 6.48918C66.1398 6.17304 65.8236 5.92346 65.4576 5.79035C65.1082 5.6406 64.7255 5.57404 64.3428 5.57404C63.9101 5.57404 63.4775 5.65724 63.0782 5.82363C62.7121 5.99002 62.3794 6.22296 62.0965 6.52246C61.8136 6.82196 61.5973 7.17138 61.4642 7.55408C61.3145 7.97005 61.2313 8.40266 61.2479 8.83527C61.2479 9.3178 61.3145 9.76705 61.4642 10.1664C61.614 10.5657 61.8136 10.9151 62.0799 11.2146C62.3461 11.4975 62.6622 11.7304 63.0283 11.8968C63.3943 12.0632 63.8103 12.1298 64.2762 12.1298C64.7587 12.1298 65.1747 12.0299 65.5574 11.8469C65.9068 11.6639 66.223 11.4143 66.4559 11.0982L67.7371 11.9967C67.3544 12.4958 66.8552 12.8785 66.2895 13.1448C65.7238 13.411 65.0416 13.5607 64.2762 13.5607C63.5774 13.5607 62.9285 13.4443 62.3461 13.2113C61.7804 12.995 61.2646 12.6622 60.8319 12.2463C60.3993 11.8136 60.0666 11.3145 59.8502 10.7488C59.6173 10.1664 59.5008 9.53411 59.5008 8.83527C59.5008 8.1198 59.6173 7.47088 59.8669 6.88852C60.1165 6.30616 60.4492 5.82363 60.8819 5.42429C61.3311 5.00832 61.8469 4.69218 62.4126 4.49251C63.3111 4.15973 64.2928 4.07654 65.2246 4.24293C65.5408 4.29285 65.8403 4.37604 66.1231 4.49251C66.406 4.60898 66.6722 4.7421 66.9384 4.90849C67.188 5.07488 67.4043 5.27454 67.5874 5.50749C67.5874 5.54076 66.3727 6.48918 66.3727 6.48918ZM78.2196 10.0499C78.2196 10.5824 78.1198 11.0815 77.9368 11.5141C77.7704 11.9301 77.5042 12.3128 77.1714 12.6123C76.8386 12.9118 76.4559 13.1614 76.0399 13.3111C75.5907 13.4775 75.0915 13.5607 74.609 13.5607C74.1265 13.5607 73.6439 13.4775 73.178 13.3111C72.7621 13.1614 72.3627 12.9118 72.0299 12.6123C71.6972 12.2962 71.4476 11.9301 71.2646 11.5141C71.0815 11.0815 70.9983 10.599 70.9983 10.0499V4.39268H72.5957V9.98336C72.5957 10.2496 72.6289 10.4992 72.6955 10.7654C72.7621 11.015 72.8785 11.2479 73.0283 11.4476C73.178 11.6473 73.3943 11.8136 73.6439 11.9468C73.8935 12.0799 74.2263 12.1298 74.5923 12.1298C74.975 12.1298 75.2912 12.0632 75.5408 11.9468C75.7903 11.8303 75.99 11.6639 76.1564 11.4476C76.3062 11.2479 76.4226 11.015 76.4892 10.7654C76.5557 10.5158 76.589 10.2496 76.589 9.98336V4.39268H78.1864C78.2196 4.39268 78.2196 10.0499 78.2196 10.0499ZM85.391 8.25291C85.624 8.25291 85.8403 8.23627 86.0732 8.20299C86.3062 8.16972 86.5058 8.10316 86.6888 8.01997C86.8719 7.92013 87.0216 7.78702 87.1381 7.62063C87.2546 7.45424 87.3211 7.2213 87.3211 6.95507C87.3211 6.70549 87.2712 6.50582 87.1547 6.35607C87.0549 6.20632 86.9052 6.07321 86.7388 5.99002C86.5557 5.89018 86.3727 5.82363 86.1564 5.80699C85.9567 5.77371 85.7404 5.75707 85.5241 5.75707H84.0765V8.26955C84.0932 8.25291 85.391 8.25291 85.391 8.25291ZM82.4958 4.39268H85.6073C86.0233 4.39268 86.4393 4.4426 86.8386 4.52579C87.2213 4.60899 87.5707 4.75874 87.8869 4.9584C88.1864 5.15807 88.4359 5.42429 88.619 5.75707C88.802 6.08985 88.9018 6.48918 88.9018 6.95507C88.9018 7.60399 88.7188 8.13644 88.3527 8.53577C87.9867 8.95175 87.4875 9.21797 86.8552 9.36772L89.2346 13.3278H87.3211L85.2579 9.53411H84.0932V13.3278H82.4958C82.4958 13.3444 82.4958 4.39268 82.4958 4.39268ZM94.9085 9.46755L91.5474 4.40932H93.4942L95.7404 8.16972L98.02 4.40932H99.8669L96.5058 9.46755V13.3444H94.9085V9.46755Z" fill="#1F1F30"/>
</g>
<defs>
<clipPath id="clip0_1_2039">
<rect width="100" height="18.4692" fill="white"/>
</clipPath>
</defs>
</svg>

<svg xmlns="http://www.w3.org/2000/svg" width="336.842" height="64" fill="none" viewBox="0 0 100 19"><g clip-path="url(#a)"><path fill="#1F1F30" d="M12.013 15.374a2.92 2.92 0 0 0-.931-2.662 2.91 2.91 0 0 0-1.98-.782c-.433 0-.85-.1-1.232-.3a2.847 2.847 0 0 1-1.165-1.18c.15-.383.217-.8.217-1.249 0 1.215.965 2.197 2.163 2.197h.05c1.181-.017 2.13-.999 2.13-2.197 0-.432.083-.848.216-1.248a3.5 3.5 0 0 1 1.165-1.564 3.44 3.44 0 0 1 2.246-.698 6.738 6.738 0 0 0-2.33-2.363v.166c0 .766-.25 1.498-.698 2.113a2.514 2.514 0 0 0-.433-.3c.4-.515.599-1.147.599-1.796 0-.383-.067-.766-.216-1.132A2.943 2.943 0 0 0 9.168.532h-.166c-.732 0-1.448.1-2.147.3C3.91 1.63 1.597 3.977.815 6.955A3.548 3.548 0 0 0 0 9.118C.05 4.11 4.043.05 9.002 0h.233c4.925.083 8.901 4.11 8.951 9.118v.2a3.45 3.45 0 0 1-.815 2.163 3.392 3.392 0 0 1-1.83 1.148 3.42 3.42 0 0 1-2.895-.599c-.217.3-.483.549-.766.782.483.649.732 1.464.682 2.28a6.738 6.738 0 0 0 2.33-2.363c.216-.017.433-.05.649-.1a7.31 7.31 0 0 1-3.078 3.111 7.18 7.18 0 0 1-3.361.832c-.516 0-.999-.25-1.298-.648a1.686 1.686 0 0 1 .25-2.28c.332.083.698.133 1.064.133-.616 0-1.131.516-1.131 1.148 0 .632.499 1.148 1.131 1.148h.017c.615 0 1.131-.516 1.131-1.148 0-.632-.499-1.148-1.131-1.148a4.51 4.51 0 0 1-2.346-.665c-.15-.1-.3-.2-.433-.3-.3-.233-.549-.5-.782-.782.133-.1.266-.216.4-.35.316.417.715.783 1.18 1.049.6.35 1.282.532 1.98.532.4 0 .783.15 1.066.4a1.686 1.686 0 0 1 .25 2.28 6.56 6.56 0 0 0 1.58-.533l-.017-.034Zm3.71-7.487a6.127 6.127 0 0 0-.532-1.614 2.924 2.924 0 0 0-2.246.566 3.012 3.012 0 0 0-1.165 2.379c0 .45-.1.865-.3 1.248-.249.5-.665.915-1.147 1.181.449.167.848.433 1.198.766a3.837 3.837 0 0 0 1.015-1.182c.35-.615.532-1.298.532-2.013a1.666 1.666 0 0 1 1.648-1.664c.365 0 .715.117.998.333Zm.117 1.281c-.016-.599-.515-1.081-1.131-1.098-.633 0-1.132.516-1.132 1.131v.034a1.133 1.133 0 0 0 2.263-.033v-.034ZM13.477 10.3c-.116.449-.282.898-.532 1.297.632.5 1.448.7 2.246.566.217-.033.433-.1.65-.183a2.984 2.984 0 0 0 1.83-2.679v-.15c0-.732-.1-1.464-.3-2.18-.782-2.961-3.095-5.307-6.023-6.122a3.574 3.574 0 0 1 1.131 1.847v.016a7.35 7.35 0 0 1 3.361 3.76c.35.85.533 1.78.533 2.763a1.64 1.64 0 0 1-.65 1.314c-.282.216-.632.35-.998.35-.499-.017-.948-.25-1.248-.6Zm-4.509 8.12C4.043 18.335.067 14.292.017 9.3v-.2a3.45 3.45 0 0 1 .815-2.163 3.492 3.492 0 0 1 1.83-1.148c.266-.066.55-.1.816-.1.748 0 1.48.25 2.08.7.216-.3.482-.55.765-.783a3.598 3.598 0 0 1-.699-2.28 6.739 6.739 0 0 0-2.33 2.364c-.216.016-.432.05-.648.1a7.309 7.309 0 0 1 3.078-3.112 7.18 7.18 0 0 1 3.36-.832c.517 0 1 .25 1.299.649.216.283.333.632.333 1.015 0 .516-.233.965-.583 1.264a4.553 4.553 0 0 0-1.065-.133c.616 0 1.132-.516 1.132-1.148 0-.632-.5-1.148-1.132-1.148h-.016c-.616 0-1.132.516-1.132 1.148 0 .632.5 1.148 1.132 1.148.832 0 1.63.233 2.346.666.15.1.3.2.432.3.283.232.55.498.782.781-.133.1-.266.217-.399.35a3.973 3.973 0 0 0-1.181-1.048 3.925 3.925 0 0 0-1.98-.533 1.69 1.69 0 0 1-1.065-.4 1.682 1.682 0 0 1-.583-1.264c0-.383.133-.732.333-1.015-.549.117-1.098.3-1.597.533a2.92 2.92 0 0 0 .932 2.662 2.91 2.91 0 0 0 1.98.782c.432 0 .848.1 1.23.3.5.266.9.682 1.166 1.18-.15.4-.233.816-.217 1.249 0-1.215-.965-2.197-2.163-2.197h-.016c-1.182.017-2.13.999-2.13 2.197 0 .432-.083.848-.217 1.248a3.5 3.5 0 0 1-1.164 1.564 3.44 3.44 0 0 1-2.246.698 6.738 6.738 0 0 0 2.329 2.363c-.033-.815.2-1.614.682-2.263.133.117.283.217.433.3a2.92 2.92 0 0 0-.6 1.797c0 .383.067.765.217 1.131a2.943 2.943 0 0 0 2.646 1.847h.15c.732 0 1.447-.1 2.146-.3 2.945-.798 5.258-3.144 6.04-6.122a3.55 3.55 0 0 0 .815-2.163c-.05 5.008-4.043 9.068-9.002 9.118h-.2c.05.016.017.016.017.016Zm-2.113-.833a3.575 3.575 0 0 1-1.131-1.847v-.016a7.35 7.35 0 0 1-3.361-3.76A7.482 7.482 0 0 1 1.83 9.2c0-.532.25-1.015.65-1.314.282-.216.615-.35.998-.35.499 0 .948.233 1.247.583.117-.466.283-.899.533-1.298a2.858 2.858 0 0 0-2.246-.566c-.233.034-.433.1-.65.183a2.984 2.984 0 0 0-1.83 2.68v.166c0 .732.1 1.464.3 2.18.799 2.978 3.095 5.324 6.023 6.122Zm-3.843-5.424a2.924 2.924 0 0 0 2.246-.566 3.011 3.011 0 0 0 1.165-2.379c0-.45.1-.865.3-1.248.249-.5.665-.915 1.147-1.181h-.016a3.51 3.51 0 0 1-1.198-.766A3.837 3.837 0 0 0 5.64 7.205a4.047 4.047 0 0 0-.533 2.013 1.665 1.665 0 0 1-1.647 1.664c-.383 0-.716-.133-.998-.35.133.566.316 1.115.549 1.631Zm-.65-2.895c.034.599.517 1.098 1.132 1.098.632 0 1.132-.516 1.132-1.131V9.2a1.126 1.126 0 0 0-1.132-1.098c-.632 0-1.131.516-1.131 1.148v.017Zm23.129-4.875h2.496l2.33 6.356h.032l2.297-6.356h2.495v8.951h-1.58V6.156h-.017l-2.712 7.188h-1.115l-2.679-7.188h-.016v7.188h-1.514l-.017-8.951Zm14.01 0h5.923V5.79h-4.326v2.28h4.11V9.4h-4.127v2.53h4.56v1.413h-6.157l.017-8.951Zm12.978 3.86c.233 0 .45-.017.682-.05.217-.033.416-.1.616-.183a1.3 1.3 0 0 0 .45-.4c.116-.166.182-.399.182-.665 0-.25-.05-.45-.166-.599a1.25 1.25 0 0 0-.416-.366 1.407 1.407 0 0 0-.582-.183c-.2-.033-.416-.05-.633-.05h-1.447V8.27c.016-.017 1.314-.017 1.314-.017Zm-2.895-3.86h3.111c.416 0 .833.05 1.232.133.383.083.732.233 1.048.432.3.2.566.483.732.8.183.332.283.731.283 1.197 0 .649-.183 1.181-.55 1.58-.365.417-.864.683-1.497.833l2.38 3.96h-1.914l-2.063-3.794h-1.165v3.794h-1.597V4.393Zm16.789 2.096a1.996 1.996 0 0 0-.915-.699 2.832 2.832 0 0 0-1.115-.216c-.433 0-.866.083-1.265.25-.366.166-.699.399-.982.698-.282.3-.499.65-.632 1.032-.15.416-.233.849-.216 1.281 0 .483.067.932.216 1.331.15.4.35.75.616 1.049.266.283.582.515.948.682.366.166.782.233 1.248.233a2.9 2.9 0 0 0 1.281-.283c.35-.183.666-.433.899-.749l1.281.899c-.383.499-.882.882-1.447 1.148-.566.266-1.248.416-2.014.416a5.173 5.173 0 0 1-1.93-.35 4.526 4.526 0 0 1-1.514-.965 4.26 4.26 0 0 1-.982-1.497 5.087 5.087 0 0 1-.35-1.914c0-.715.117-1.364.367-1.946a4.2 4.2 0 0 1 1.015-1.465c.45-.416.965-.732 1.53-.931a5.405 5.405 0 0 1 2.813-.25c.316.05.615.133.898.25.283.116.55.25.815.415.25.167.466.367.65.6 0 .033-1.215.981-1.215.981Zm11.847 3.56c0 .533-.1 1.033-.283 1.465a2.979 2.979 0 0 1-.766 1.098c-.332.3-.715.55-1.131.7a4.248 4.248 0 0 1-2.862 0 3.55 3.55 0 0 1-1.148-.7 3.353 3.353 0 0 1-.765-1.098c-.183-.432-.267-.915-.267-1.464V4.393h1.598v5.59c0 .267.033.516.1.782.066.25.183.483.332.683.15.2.366.366.616.499s.582.183.948.183c.383 0 .7-.067.949-.183.25-.117.449-.283.615-.5.15-.2.267-.432.333-.682.067-.25.1-.515.1-.782v-5.59h1.597c.034 0 .034 5.657.034 5.657Zm7.171-1.796c.233 0 .45-.017.682-.05.233-.033.433-.1.616-.183a1.3 1.3 0 0 0 .45-.4c.116-.166.182-.399.182-.665 0-.25-.05-.45-.166-.599-.1-.15-.25-.283-.416-.366a1.407 1.407 0 0 0-.583-.183c-.2-.033-.416-.05-.632-.05h-1.448V8.27c.017-.017 1.315-.017 1.315-.017Zm-2.895-3.86h3.111c.416 0 .832.05 1.232.133.382.083.732.233 1.048.432.3.2.549.466.732.8.183.332.283.731.283 1.197 0 .649-.183 1.181-.55 1.58-.365.417-.865.683-1.497.833l2.38 3.96H87.32l-2.063-3.794h-1.165v3.794h-1.597V4.393Zm12.413 5.075-3.362-5.059h1.947l2.246 3.76 2.28-3.76h1.847l-3.361 5.059v3.876h-1.597V9.468Z"/></g><defs><clipPath id="a"><path fill="#fff" d="M0 0h100v18.469H0z"/></clipPath></defs></svg>
